assets/Person walking/Medium-Dark/Flat/person_walking_flat_medium-dark.svg

<svg width="32" height="32" viewBox="0 0 32 32" fill="none" xmlns="http://www.w3.org/2000/svg">
<path d="M14.4199 12.88L15.3699 12.95C16.8899 13 17.8999 13.81 18.1199 15.27L19.3799 20.57C19.3999 20.67 19.4499 20.76 19.5099 20.84L23.5399 26.29L22.1699 27.16L18.0399 23.09C17.3199 22.4 16.7099 21.83 16.4599 21.28L15.2799 16.99L14.4199 12.88Z" fill="#636363"/>
<path d="M13.6 16.2L12.33 20.1C12.1 20.75 11.97 21.46 11.86 22.45L11.3 27.64L12.59 28.8L14.62 21.99L17.79 18.39C18.31 17.79 18.5 16.99 18.36 16.21L16.1276 15.4606L13.6 16.21V16.2Z" fill="#9B9B9B"/>
<path d="M24.25 26.8499L23.28 25.9399L21.69 26.6699L21.03 29.7199C20.98 30.0599 21.4 30.2599 21.64 30.0099L24.26 27.1999C24.35 27.0999 24.35 26.9399 24.25 26.8499Z" fill="#533566"/>
<path d="M12.1899 29.9699L12.6199 28.7099L11.3099 27.5599L8.25991 28.2099C7.91991 28.2999 7.90991 28.7699 8.23991 28.8799L11.8799 30.1199C12.0099 30.1699 12.1499 30.0999 12.1899 29.9699Z" fill="#533566"/>
<path d="M20.2425 16.6535C20.2117 16.561 20.1844 16.4663 20.1584 16.3766C20.1349 16.2952 20.1126 16.2179 20.09 16.15C18.8246 12.4777 16.2197 10.9143 15.9522 10.7537C15.9385 10.7455 15.93 10.74 15.93 10.74C15.47 10.49 15.29 9.93 15.53 9.47C15.77 9.01 16.34 8.83 16.79 9.07C16.93 9.14 20.28 10.93 21.86 15.53C21.8792 15.5853 21.899 15.6396 21.9184 15.6927C21.9621 15.8125 22.0035 15.9259 22.03 16.0303L22.3299 16.78C22.3321 16.786 22.3343 16.7921 22.3366 16.7983C22.4184 17.0232 22.5688 17.4362 22.5299 17.66C22.4799 17.93 22.0299 18.23 21.6499 18.35C21.6499 18.35 21.1699 18.5 20.7599 18.4C20.4499 18.33 20.4999 17.97 20.4999 17.97C20.4999 17.97 20.3899 17.88 20.1099 17.68C19.7465 17.4157 20.1063 16.8443 20.2425 16.6535Z" fill="#966661"/>
<path d="M15.042 10.9365C15.0942 10.4271 14.7238 9.96988 14.2144 9.91768C13.7069 9.86566 13.253 10.2335 13.1982 10.7401L13.1966 10.752C13.1947 10.7658 13.1911 10.7909 13.185 10.8265C13.1727 10.8976 13.1507 11.0102 13.1135 11.1572C13.039 11.4514 12.904 11.8814 12.6659 12.3918C12.2085 13.3724 11.3665 14.6581 9.82108 15.8537C9.61457 15.8006 8.92854 15.6608 8.80989 16.11C8.71989 16.44 8.67989 16.57 8.67989 16.57C8.67989 16.57 8.32989 16.65 8.37989 16.97C8.43989 17.38 8.74989 17.77 8.74989 17.77C8.99989 18.08 9.43989 18.38 9.69989 18.33C9.90208 18.286 10.1816 18.0489 10.3685 17.8903C10.3941 17.8685 10.4182 17.8481 10.4399 17.83L11.0102 17.278C12.7821 15.8923 13.7849 14.3793 14.3464 13.1757C14.6395 12.5473 14.8115 12.0055 14.911 11.6125C14.9608 11.4159 14.9926 11.2561 15.0125 11.1407C15.0224 11.083 15.0293 11.0363 15.034 11.0017C15.0364 10.9843 15.0382 10.97 15.0395 10.9588L15.0412 10.9443L15.0418 10.9388L15.042 10.9365Z" fill="#966661"/>
<path d="M15.8899 6.78003L16.2099 8.75003L14.1899 9.10003L13.8799 7.09003L15.8899 6.78003Z" fill="#8B5C56"/>
<path d="M14.25 13.63C14.86 12.47 15.16 11.42 15.3 10.66C15.42 10.03 14.94 9.44003 14.3 9.41003H14.26C13.78 9.41003 13.52 9.65003 13.43 10.13C13.38 10.41 13.15 10.89 13.02 11.29C12.87 11.76 12.67 12.22 12.43 12.67C12.39 12.75 12.42 12.84 12.5 12.88L14.04 13.69C14.12 13.74 14.21 13.71 14.25 13.63Z" fill="#F95725"/>
<path d="M15.32 8.63002C14.14 8.92002 13.43 9.33002 13.12 11.02C12.75 13.04 13.59 16.21 13.59 16.21H18.36L17.76 10.57C17.63 9.37002 16.63 8.31002 15.32 8.63002Z" fill="#FF6723"/>
<path d="M19.35 11.09C18.45 10.1 17.56 9.46 16.88 9.06C16.32 8.72 15.59 8.97 15.34 9.57L15.32 9.61C15.17 10.08 15.36 10.59 15.79 10.84C16.05 10.99 16.36 11.19 16.69 11.46C17.09 11.77 17.46 12.12 17.8 12.5C17.86 12.57 17.96 12.57 18.03 12.51L19.34 11.32C19.41 11.26 19.41 11.16 19.35 11.09Z" fill="#FF8101"/>
<path d="M13.5601 8.52998C14.3401 8.52998 15.5701 8.13998 15.9201 7.21998L16.2501 5.98998L16.6201 4.69998C16.6201 3.74998 15.8501 2.97998 14.9001 2.97998H13.7801C12.8301 2.97998 12.0601 3.74998 12.0601 4.69998V5.39006C11.9141 5.67263 11.8035 5.82433 11.7275 5.92874C11.6421 6.046 11.6001 6.10361 11.6001 6.21998C11.6001 6.43998 11.8401 6.61998 12.0601 6.61998L12.0634 6.61997C12.0857 7.72914 12.2563 8.52998 13.5601 8.52998Z" fill="#966661"/>
<path d="M13.3101 5.67003C13.3801 5.67003 13.4301 5.61003 13.4301 5.53003V5.52003C13.4301 5.20003 13.1601 5.03003 12.9001 5.03003C12.6401 5.03003 12.3701 5.21003 12.3701 5.52003V5.53003C12.3701 5.61003 12.4301 5.67003 12.4901 5.67003H13.3101V5.67003Z" fill="white"/>
<path d="M12.3901 5.66999C12.3801 5.61999 12.3701 5.56999 12.3701 5.51999C12.3701 5.28999 12.5201 5.10999 12.7001 5.10999C12.8801 5.10999 13.0301 5.29999 13.0301 5.51999C13.0301 5.56999 13.0201 5.61999 13.0101 5.66999H12.3901Z" fill="#7D4533"/>
<path d="M12.5 5.66003C12.48 5.62003 12.46 5.57003 12.46 5.52003C12.46 5.39003 12.54 5.28003 12.65 5.28003C12.75 5.28003 12.84 5.39003 12.84 5.52003C12.84 5.58003 12.82 5.63003 12.8 5.67003H12.5V5.66003Z" fill="black"/>
<path d="M12.53 5.44003C12.5631 5.44003 12.59 5.40421 12.59 5.36003C12.59 5.31585 12.5631 5.28003 12.53 5.28003C12.4968 5.28003 12.47 5.31585 12.47 5.36003C12.47 5.40421 12.4968 5.44003 12.53 5.44003Z" fill="white"/>
<path fill-rule="evenodd" clip-rule="evenodd" d="M13.1326 6.6797C13.1935 6.69776 13.2283 6.76181 13.2102 6.82276C13.1104 7.15959 12.7507 7.32834 12.4235 7.21925C12.3632 7.19915 12.3306 7.13397 12.3507 7.07366C12.3708 7.01335 12.4359 6.98076 12.4963 7.00086C12.709 7.07177 12.9293 6.96052 12.9895 6.75736C13.0076 6.69641 13.0716 6.66164 13.1326 6.6797Z" fill="#990838"/>
<path d="M15.0883 4.91231C15.0735 4.76282 14.9348 4.06005 13.6301 4.06005C12.4001 4.06005 12.0601 3.64005 12.0601 2.92005C12.0601 2.19005 12.6501 2.01005 12.9701 2.01005C13.3891 2.01005 13.6159 2.07163 13.8053 2.12305C14.0543 2.19066 14.2386 2.2407 14.7101 2.11005C15.8501 1.80005 17.5301 2.00005 17.5301 3.84005C17.5301 6.37005 16.6201 6.38005 16.6201 6.38005C17.3401 6.38005 17.2601 7.31005 16.7201 7.31005C16.6729 7.31005 16.6182 7.31434 16.559 7.31898C16.2042 7.3468 15.6901 7.38711 15.6901 6.59005C15.6901 6.36035 15.6803 6.1624 15.6632 5.99184C15.733 5.88284 15.7732 5.75269 15.7732 5.61215C15.7732 5.22718 15.4712 4.92017 15.0883 4.91231Z" fill="#2D242D"/>
<path d="M13.362 4.80503C13.3354 4.80454 13.3095 4.79581 13.288 4.78003V4.78003C13.0932 4.65025 12.8583 4.59488 12.626 4.62403C12.6098 4.62641 12.5933 4.62543 12.5776 4.62115C12.5618 4.61687 12.547 4.60938 12.5343 4.59915C12.5215 4.58892 12.511 4.57617 12.5034 4.5617C12.4958 4.54722 12.4912 4.53134 12.49 4.51503C12.4882 4.49893 12.4896 4.48264 12.4941 4.46709C12.4986 4.45154 12.5062 4.43702 12.5163 4.42439C12.5264 4.41175 12.5389 4.40124 12.5531 4.39346C12.5673 4.38567 12.5829 4.38077 12.599 4.37903C12.894 4.34292 13.192 4.41583 13.437 4.58403C13.4576 4.59963 13.4727 4.6213 13.4803 4.64599C13.4879 4.67067 13.4875 4.69711 13.4792 4.72155C13.4709 4.746 13.4551 4.76722 13.4341 4.7822C13.413 4.79718 13.3878 4.80517 13.362 4.80503V4.80503Z" fill="#372128"/>
</svg>

<svg xmlns="http://www.w3.org/2000/svg" width="32" height="32" fill="none"><path fill="#636363" d="m14.42 12.88.95.07c1.52.05 2.53.86 2.75 2.32l1.26 5.3c.02.1.07.19.13.27l4.03 5.45-1.37.87-4.13-4.07c-.72-.69-1.33-1.26-1.58-1.81l-1.18-4.29-.86-4.11Z"/><path fill="#9B9B9B" d="m13.6 16.2-1.27 3.9c-.23.65-.36 1.36-.47 2.35l-.56 5.19 1.29 1.16 2.03-6.81 3.17-3.6c.52-.6.71-1.4.57-2.18l-2.232-.75-2.528.75v-.01Z"/><path fill="#533566" d="m24.25 26.85-.97-.91-1.59.73-.66 3.05c-.05.34.37.54.61.29l2.62-2.81c.09-.1.09-.26-.01-.35ZM12.19 29.97l.43-1.26-1.31-1.15-3.05.65c-.34.09-.35.56-.02.67l3.64 1.24c.13.05.27-.02.31-.15Z"/><path fill="#966661" d="M20.242 16.654c-.03-.093-.058-.188-.084-.277-.023-.082-.045-.16-.068-.227-1.265-3.672-3.87-5.236-4.138-5.396a.946.946 0 0 1-.422-1.284c.24-.46.81-.64 1.26-.4.14.07 3.49 1.86 5.07 6.46l.058.163c.044.12.085.233.112.337l.3.75.007.018c.081.225.232.638.193.862-.05.27-.5.57-.88.69 0 0-.48.15-.89.05-.31-.07-.26-.43-.26-.43s-.11-.09-.39-.29c-.363-.264-.004-.836.133-1.026ZM15.042 10.937a.927.927 0 0 0-1.844-.196l-.001.011a4.457 4.457 0 0 1-.083.405c-.075.294-.21.724-.448 1.235-.457.98-1.3 2.266-2.845 3.462-.206-.053-.892-.193-1.011.256-.09.33-.13.46-.13.46s-.35.08-.3.4c.06.41.37.8.37.8.25.31.69.61.95.56.202-.044.482-.281.668-.44l.072-.06.57-.552c1.772-1.386 2.775-2.899 3.336-4.102.293-.629.466-1.17.565-1.563a6.277 6.277 0 0 0 .129-.654l.001-.015v-.005l.001-.002Z"/><path fill="#8B5C56" d="m15.89 6.78.32 1.97-2.02.35-.31-2.01 2.01-.31Z"/><path fill="#F95725" d="M14.25 13.63c.61-1.16.91-2.21 1.05-2.97.12-.63-.36-1.22-1-1.25h-.04c-.48 0-.74.24-.83.72-.05.28-.28.76-.41 1.16-.15.47-.35.93-.59 1.38-.04.08-.01.17.07.21l1.54.81c.08.05.17.02.21-.06Z"/><path fill="#FF6723" d="M15.32 8.63c-1.18.29-1.89.7-2.2 2.39-.37 2.02.47 5.19.47 5.19h4.77l-.6-5.64c-.13-1.2-1.13-2.26-2.44-1.94Z"/><path fill="#FF8101" d="M19.35 11.09c-.9-.99-1.79-1.63-2.47-2.03-.56-.34-1.29-.09-1.54.51l-.02.04c-.15.47.04.98.47 1.23.26.15.57.35.9.62.4.31.77.66 1.11 1.04.06.07.16.07.23.01l1.31-1.19c.07-.06.07-.16.01-.23Z"/><path fill="#966661" d="M13.56 8.53c.78 0 2.01-.39 2.36-1.31l.33-1.23.37-1.29c0-.95-.77-1.72-1.72-1.72h-1.12c-.95 0-1.72.77-1.72 1.72v.69c-.146.283-.257.434-.333.539-.085.117-.127.175-.127.291 0 .22.24.4.46.4h.003c.023 1.11.193 1.91 1.497 1.91Z"/><path fill="#fff" d="M13.31 5.67c.07 0 .12-.06.12-.14v-.01c0-.32-.27-.49-.53-.49s-.53.18-.53.49v.01c0 .08.06.14.12.14h.82Z"/><path fill="#7D4533" d="M12.39 5.67c-.01-.05-.02-.1-.02-.15 0-.23.15-.41.33-.41.18 0 .33.19.33.41 0 .05-.01.1-.02.15h-.62Z"/><path fill="#000" d="M12.5 5.66a.326.326 0 0 1-.04-.14c0-.13.08-.24.19-.24.1 0 .19.11.19.24 0 .06-.02.11-.04.15h-.3v-.01Z"/><path fill="#fff" d="M12.53 5.44c.033 0 .06-.036.06-.08 0-.044-.027-.08-.06-.08s-.06.036-.06.08c0 .044.027.08.06.08Z"/><path fill="#990838" fill-rule="evenodd" d="M13.133 6.68c.06.018.095.082.077.143a.61.61 0 0 1-.787.396.115.115 0 1 1 .073-.218.38.38 0 0 0 .493-.244.115.115 0 0 1 .144-.077Z" clip-rule="evenodd"/><path fill="#2D242D" d="M15.088 4.912c-.014-.15-.153-.852-1.458-.852-1.23 0-1.57-.42-1.57-1.14 0-.73.59-.91.91-.91.42 0 .646.062.835.113.25.068.434.118.905-.013 1.14-.31 2.82-.11 2.82 1.73 0 2.53-.91 2.54-.91 2.54.72 0 .64.93.1.93-.047 0-.102.004-.161.009-.355.028-.869.068-.869-.729 0-.23-.01-.428-.027-.598a.7.7 0 0 0 .11-.38.695.695 0 0 0-.685-.7Z"/><path fill="#372128" d="M13.362 4.805a.13.13 0 0 1-.074-.025.975.975 0 0 0-.662-.156.119.119 0 0 1-.136-.109.123.123 0 0 1 .109-.136c.295-.036.593.037.838.205a.123.123 0 0 1-.075.221Z"/></svg>
